pages/travel-inside/img/svg/why-we3.svg

<svg width="35" height="35" viewBox="0 0 35 35" fill="none" xmlns="http://www.w3.org/2000/svg">
<circle cx="17.5" cy="17.5" r="17.5" fill="white"/>
<path d="M24.9999 11.7848C25.0048 11.3061 24.8211 10.856 24.4825 10.5174C24.1484 10.1833 23.7057 10 23.234 10C23.2277 10 23.2214 10 23.2151 10.0001C22.7364 10.005 22.2902 10.198 21.9587 10.5434L19.3333 13.2793L12.4632 11.0057L10.4343 13.0346L16.1756 16.5697L13.8132 19.0314L11.9591 18.727L10 20.686L13.1949 21.8051L14.314 25L16.273 23.0409L15.9687 21.1868L18.4304 18.8244L21.9654 24.5658L23.9944 22.5369L21.7208 15.6668L24.4567 13.0413C24.802 12.7098 24.995 12.2635 24.9999 11.7848ZM23.8475 12.4065L20.7112 15.4163L22.9887 22.2983L22.1307 23.1563L18.6078 17.4348L15.0255 20.8725L15.3318 22.738L14.6816 23.3882L13.8853 21.1147L11.6118 20.3184L12.262 19.6682L14.1275 19.9745L17.5652 16.3922L11.8437 12.8693L12.7017 12.0114L19.5837 14.2889L22.5935 11.1526C22.7599 10.9792 22.9839 10.8823 23.2243 10.8798C23.2274 10.8798 23.2306 10.8798 23.2337 10.8798C23.4705 10.8798 23.6927 10.9718 23.8605 11.1395C24.0305 11.3095 24.1227 11.5354 24.1202 11.7757C24.1177 12.0161 24.0209 12.2401 23.8475 12.4065Z" fill="black"/>
</svg>

<svg xmlns="http://www.w3.org/2000/svg" width="35" height="35" fill="none"><circle cx="17.5" cy="17.5" r="17.5" fill="#fff"/><path fill="#000" d="M25 11.78A1.75 1.75 0 0023.23 10h-.01c-.48 0-.93.2-1.26.54l-2.63 2.74L12.46 11l-2.03 2.02 5.75 3.54-2.37 2.46-1.85-.3L10 20.69l3.2 1.12L14.3 25l1.96-1.96-.3-1.85 2.46-2.37 3.54 5.75 2.02-2.03-2.27-6.87 2.74-2.63c.34-.33.54-.78.54-1.26zm-1.15.63l-3.14 3L23 22.3l-.86.86-3.52-5.73-3.58 3.44.3 1.87-.65.65-.8-2.28-2.27-.8.65-.64 1.87.3 3.44-3.58-5.73-3.52.86-.86 6.88 2.28 3.01-3.14a.88.88 0 01.63-.27h.01a.88.88 0 01.89.9c0 .24-.1.46-.27.63z"/></svg>
